!!!SOCIAL_FUNCTION:	songs of social dances
!!!PDT:	1958
!!!OTL: No_16_Social_Dance_Song_(d).krn
!!!REG: Northern California
!!!LANG: Non-Tone
!!!LING_GROUP: Penutian
**kern
*staff1
=1-
*clefF4
*k[f#c#g#d#]
*M2/4
8BB\L
16E\L
16E\JJ
4E\
=2
8F#\L
16E\L
16E\JJ
16E\LL
16C#\
16E\JJ
16r
=3
8F#\L
16E\L
16E\JJ
16E/LL
16C#/
16BB/JJ
16r
=4
8BB\L
16E\L
16E\JJ
8E\
8r
=5!|:
16F#\LL
16F#\
16F#\
16F#\JJ
4F#\
=6
8F#\L
16F#\L
16E\JJ
16E\LL
16C#\
16E\JJ
16r
=7
8F#\L
16E\L
16E\JJ
16E/LL
16C#/
16BB/JJ
16r
=8
8BB\L
16E\L
16E\JJ
4E\
=9
16F#\LL
16F#\
16E\
16E\JJ
16E\LL
16C#\
16E\JJ
16r
=10
8F#\L
16E\L
16E\JJ
16E/LL
16C#/
16BB/JJ
16r
=11
8BB\L
16E\L
16E\JJ
8E\
8r
==:|!
*-
